Papirus/64x64/mimetypes/model-stl.svg

<?xml version="1.0" encoding="UTF-8" standalone="no"?>
<svg
   id="_图层_1"
   data-name="图层_1"
   version="1.1"
   viewBox="0 0 128 128"
   width="64"
   height="64"
   sodipodi:docname="model-stl.svg"
   xml:space="preserve"
   inkscape:version="1.4 (e7c3feb100, 2024-10-09)"
   xmlns:inkscape="http://www.inkscape.org/namespaces/inkscape"
   xmlns:sodipodi="http://sodipodi.sourceforge.net/DTD/sodipodi-0.dtd"
   xmlns="http://www.w3.org/2000/svg"
   xmlns:svg="http://www.w3.org/2000/svg"><sodipodi:namedview
     id="namedview3"
     pagecolor="#505050"
     bordercolor="#eeeeee"
     borderopacity="1"
     inkscape:showpageshadow="0"
     inkscape:pageopacity="0"
     inkscape:pagecheckerboard="0"
     inkscape:deskcolor="#505050"
     inkscape:zoom="10.6875"
     inkscape:cx="32.093567"
     inkscape:cy="33.684211"
     inkscape:window-width="1920"
     inkscape:window-height="939"
     inkscape:window-x="0"
     inkscape:window-y="34"
     inkscape:window-maximized="1"
     inkscape:current-layer="_图层_1" /><!-- Generator: Adobe Illustrator 29.0.1, SVG Export Plug-In . SVG Version: 2.1.0 Build 192)  --><defs
     id="defs1"><style
       id="style1">
      .st0 {
        fill: #0071e9;
      }

      .st1 {
        fill: #fff;
      }

      .st2 {
        fill: #5aaaff;
        isolation: isolate;
        opacity: .5;
      }
    </style></defs><path
     class="st0"
     d="M18.2,0c-5.6,0-10.2,4.6-10.2,10.2v107.6c0,5.6,4.6,10.2,10.2,10.2h91.6c5.6,0,10.2-4.6,10.2-10.2V40.6L82.2,0H18.2Z"
     id="path1"
     style="fill:#f2f2f2;fill-opacity:1" /><path
     class="st2"
     d="m 82.761404,2.619883 v 29.2 c 0,3.2 2.145542,11.6 11.89801,11.6 h 24.966316 z"
     id="path2"
     style="fill:#b3b3b3;fill-opacity:1;stroke-width:0.987546" /><path
     class="st2"
     d="M 82.116964,0.02339171 V 29.223392 c 0,3.2 2.2,11.6 12.2,11.6 h 25.599996 z"
     id="path2-3"
     style="opacity:1;isolation:isolate;fill:#ececec;fill-opacity:1" /><g
     id="g1"
     transform="matrix(1.6374269,0,0,1.468144,10.5731,29.267774)"><path
       style="opacity:0.2"
       d="M 32,5 C 31.481,5 31.036,5.122 30.587,5.3878 L 9.4124,17.937 C 8.5383,18.455 7.9999,19.412 8,20.448 v 25.099 c -10e-5,1.036 0.5383,1.994 1.4124,2.512 L 30.587,60.608 C 31.024,60.867 31.512,61 32,61 c 0.487,0 0.975,-0.133 1.412,-0.392 L 54.587,48.059 C 55.461,47.541 56,46.583 56,45.547 V 20.448 c 0,-1.036 -0.539,-1.993 -1.413,-2.511 L 33.413,5.3878 C 33.003,5.1448 32.476,5 32,5 Z"
       id="path1-2" /><path
       style="fill:#8fbcbb"
       d="M 32,4 C 31.481,4 31.036,4.122 30.587,4.3878 L 9.4124,16.937 C 8.5383,17.455 7.9999,18.412 8,19.448 v 25.099 c -10e-5,1.036 0.5383,1.994 1.4124,2.512 L 30.587,59.608 C 31.024,59.867 31.512,60 32,60 c 0.487,0 0.975,-0.133 1.412,-0.392 L 54.587,47.059 C 55.461,46.541 56,45.583 56,44.547 V 19.448 c 0,-1.036 -0.539,-1.993 -1.413,-2.511 L 33.413,4.3878 C 33.003,4.1448 32.476,4 32,4 Z"
       id="path2-7" /><path
       style="opacity:0.1"
       d="M 8.2598,18.293 C 8.1052,18.654 8,19.039 8,19.447 v 25.1 c -10e-5,1.036 0.538,1.994 1.4121,2.512 L 30.588,59.607 C 31.025,59.866 31.512,60 32,60 V 32 Z"
       id="path3" /><path
       style="opacity:0.2"
       d="M 55.74,18.293 32,32 v 28 c 0.487,0 0.975,-0.134 1.412,-0.393 L 54.588,47.059 C 55.462,46.541 56,45.583 56,44.547 v -25.1 c 0,-0.408 -0.105,-0.793 -0.26,-1.154 z"
       id="path4" /><path
       style="opacity:0.2;fill:#ffffff"
       d="M 32,4 C 31.481,4 31.037,4.1229 30.588,4.3887 L 9.4121,16.938 C 8.538,17.456 7.9999,18.411 8,19.447 v 1 C 7.9999,19.411 8.538,18.455 9.4121,17.938 L 30.588,5.3887 C 31.037,5.1229 31.481,5 32,5 c 0.476,0 1.002,0.1457 1.412,0.3887 L 54.588,17.938 C 55.462,18.456 56,19.411 56,20.447 v -1 c 0,-1.036 -0.538,-1.991 -1.412,-2.509 L 33.412,4.3887 C 33.002,4.1457 32.476,4 32,4 Z"
       id="path5" /></g></svg>

<svg xmlns="http://www.w3.org/2000/svg" width="64" height="64" version="1.1">
 <path style="opacity:0.2" d="M 32,5 C 31.481,5 31.036,5.122 30.587,5.3878 L 9.4124,17.937 C 8.5383,18.455 7.9999,19.412 8,20.448 V 45.547 C 7.9999,46.583 8.5383,47.541 9.4124,48.059 L 30.587,60.608 C 31.024,60.867 31.512,61 32,61 32.487,61 32.975,60.867 33.412,60.608 L 54.587,48.059 C 55.461,47.541 56,46.583 56,45.547 V 20.448 C 56,19.412 55.461,18.455 54.587,17.937 L 33.413,5.3878 C 33.003,5.1448 32.476,5 32,5 Z"/>
 <path style="fill:#8fbcbb" d="M 32,4 C 31.481,4 31.036,4.122 30.587,4.3878 L 9.4124,16.937 C 8.5383,17.455 7.9999,18.412 8,19.448 V 44.547 C 7.9999,45.583 8.5383,46.541 9.4124,47.059 L 30.587,59.608 C 31.024,59.867 31.512,60 32,60 32.487,60 32.975,59.867 33.412,59.608 L 54.587,47.059 C 55.461,46.541 56,45.583 56,44.547 V 19.448 C 56,18.412 55.461,17.455 54.587,16.937 L 33.413,4.3878 C 33.003,4.1448 32.476,4 32,4 Z"/>
 <path style="opacity:0.1" d="M 8.2598,18.293 C 8.1052,18.654 8,19.039 8,19.447 V 44.547 C 7.9999,45.583 8.538,46.541 9.4121,47.059 L 30.588,59.607 C 31.025,59.866 31.512,60 32,60 V 32 Z"/>
 <path style="opacity:0.2" d="M 55.74,18.293 32,32 V 60 C 32.487,60 32.975,59.866 33.412,59.607 L 54.588,47.059 C 55.462,46.541 56,45.583 56,44.547 V 19.447 C 56,19.039 55.895,18.654 55.74,18.293 Z"/>
 <path style="opacity:0.2;fill:#ffffff" d="M 32,4 C 31.481,4 31.037,4.1229 30.588,4.3887 L 9.4121,16.938 C 8.538,17.456 7.9999,18.411 8,19.447 V 20.447 C 7.9999,19.411 8.538,18.455 9.4121,17.938 L 30.588,5.3887 C 31.037,5.1229 31.481,5 32,5 32.476,5 33.002,5.1457 33.412,5.3887 L 54.588,17.938 C 55.462,18.456 56,19.411 56,20.447 V 19.447 C 56,18.411 55.462,17.456 54.588,16.938 L 33.412,4.3887 C 33.002,4.1457 32.476,4 32,4 Z"/>
</svg>
